X:480
T:Lord Blantyre
R:Strathspey
C:Niel Gow
B:The Athole Collection
M:C
L:1/8
K:A
e|c<e A<e c<e a2|f<d =g2 B<=G G>B|c<e A<e c<e a>f|=g>d B>d e<AA:|
e|c>e a2 a/g/f/e/ a2|B>d =g2 B<=G G>B|c>e d>f e>=g f>a|=g>ea>e c<AA||

